%
(1001)
(T1  D=6. CR=0. - ZMIN=-1. - FLAT END MILL)
N10 G90 G94 G17 G91.1
N15 G21
N20 G53 G0 Z0.
(FACE3)
N25 M9
N30 T1 M6
N35 S5000 M3
N40 G54
N45 M8
N55 G0 X16.432 Y-10.448
N60 G43 Z15. H1
N65 G0 Z5.
N70 G1 Z-0.4 F1000.
N75 G18 G3 X15.832 Z-1. I-0.6 K0.
N80 G1 X12.532
N85 X-12.532
N90 G17 G2 Y-5.433 I0. J2.508
N95 G1 X12.532
N100 G3 Y-0.417 I0. J2.508
N105 G1 X-12.532
N110 G2 Y4.598 I0. J2.508
N115 G1 X12.532
N120 G3 Y9.613 I0. J2.508
N125 G1 X-12.532
N130 G18 G3 X-13.132 Z-0.4 I0. K0.6
N135 G0 Z15.
N140 G17
N145 M9
N150 G53 G0 Z0.
N155 M30
%
